Catalina-dark/actions/16/edit-select-all-layers.svg

<?xml version="1.0" encoding="UTF-8" standalone="no"?>
<svg
   xmlns:dc="http://purl.org/dc/elements/1.1/"
   xmlns:cc="http://creativecommons.org/ns#"
   xmlns:rdf="http://www.w3.org/1999/02/22-rdf-syntax-ns#"
   xmlns:svg="http://www.w3.org/2000/svg"
   xmlns="http://www.w3.org/2000/svg"
   xmlns:sodipodi="http://sodipodi.sourceforge.net/DTD/sodipodi-0.dtd"
   xmlns:inkscape="http://www.inkscape.org/namespaces/inkscape"
   width="16"
   height="16"
   viewBox="0 0 16 16"
   version="1.1"
   id="svg7"
   sodipodi:docname="edit-select-all-layers.svg"
   inkscape:version="0.92.4 5da689c313, 2019-01-14">
  <metadata
     id="metadata11">
    <rdf:RDF>
      <cc:Work
         rdf:about="">
        <dc:format>image/svg+xml</dc:format>
        <dc:type
           rdf:resource="http://purl.org/dc/dcmitype/StillImage" />
      </cc:Work>
    </rdf:RDF>
  </metadata>
  <sodipodi:namedview
     pagecolor="#ffffff"
     bordercolor="#666666"
     borderopacity="1"
     objecttolerance="10"
     gridtolerance="10"
     guidetolerance="10"
     inkscape:pageopacity="0"
     inkscape:pageshadow="2"
     inkscape:window-width="640"
     inkscape:window-height="480"
     id="namedview9"
     showgrid="false"
     inkscape:zoom="14.75"
     inkscape:cx="6.8135593"
     inkscape:cy="8"
     inkscape:window-x="0"
     inkscape:window-y="26"
     inkscape:window-maximized="0"
     inkscape:current-layer="svg7" />
  <defs
     id="defs3">
    <style
       id="current-color-scheme"
       type="text/css">
   .ColorScheme-Text { color:#5c616c; } .ColorScheme-Highlight { color:#5294e2; }
  </style>
  </defs>
  <path
     style="fill:#f1f6f8;fill-opacity:0.8509804"
     class="ColorScheme-Text"
     d="M 0.50195312 0 L 0.08984375 0.21875 L 0.037109375 0.68359375 L 0.390625 0.98828125 L 0.5 1 L 1.5 1 L 1.9140625 0.78125 L 1.9648438 0.31640625 L 1.6113281 0.01171875 L 1.5019531 0 L 0.50195312 0 z M 3.5019531 0 L 3.0898438 0.21875 L 3.0371094 0.68359375 L 3.390625 0.98828125 L 3.5 1 L 4.5 1 L 4.9140625 0.78125 L 4.9648438 0.31640625 L 4.6113281 0.01171875 L 4.5019531 0 L 3.5019531 0 z M 6.5019531 0 L 6.0898438 0.21875 L 6.0371094 0.68359375 L 6.390625 0.98828125 L 6.5 1 L 7.5 1 L 7.9140625 0.78125 L 7.9648438 0.31640625 L 7.6113281 0.01171875 L 7.5019531 0 L 6.5019531 0 z M 9.5019531 0 L 9.0898438 0.21875 L 9.0371094 0.68359375 L 9.390625 0.98828125 L 9.5 1 L 10.5 1 L 10.914062 0.78125 L 10.964844 0.31640625 L 10.611328 0.01171875 L 10.501953 0 L 9.5019531 0 z M 12.501953 0 L 12.089844 0.21875 L 12.037109 0.68359375 L 12.390625 0.98828125 L 12.5 1 L 13.5 1 L 13.914062 0.78125 L 13.964844 0.31640625 L 13.611328 0.01171875 L 13.501953 0 L 12.501953 0 z M 15.498047 0.5 L 15 1.5 L 15.21875 1.9140625 L 15.683594 1.9648438 L 15.988281 1.6113281 L 15.998047 1.5 L 15.498047 0.5 z M 0.31640625 2.0351562 L 0.009765625 2.3886719 L 0 2.5 L 0 3.5 L 0.21875 3.9140625 L 0.68359375 3.9648438 L 0.98828125 3.6113281 L 0.99804688 3.5 L 0.99804688 2.5 L 0.77929688 2.0859375 L 0.31640625 2.0351562 z M 3 3 L 3 5 L 9 5 L 9 3 L 3 3 z M 15.316406 3.0351562 L 15.009766 3.3886719 L 15 3.5 L 15 4.5 L 15.21875 4.9140625 L 15.683594 4.9648438 L 15.988281 4.6113281 L 15.998047 4.5 L 15.998047 3.5 L 15.779297 3.0859375 L 15.316406 3.0351562 z M 0.31640625 5.0351562 L 0.009765625 5.3886719 L 0 5.5 L 0 6.5 L 0.21875 6.9140625 L 0.68359375 6.9648438 L 0.98828125 6.6113281 L 0.99804688 6.5 L 0.99804688 5.5 L 0.77929688 5.0859375 L 0.31640625 5.0351562 z M 15.316406 6.0351562 L 15.009766 6.3886719 L 15 6.5 L 15 7.5 L 15.21875 7.9140625 L 15.683594 7.9648438 L 15.988281 7.6113281 L 15.998047 7.5 L 15.998047 6.5 L 15.779297 6.0859375 L 15.316406 6.0351562 z M 5 7 L 5 9 L 11 9 L 11 7 L 5 7 z M 0.31640625 8.0351562 L 0.009765625 8.3886719 L 0 8.5 L 0 9.5 L 0.21875 9.9140625 L 0.68359375 9.9648438 L 0.98828125 9.6113281 L 0.99804688 9.5 L 0.99804688 8.5 L 0.77929688 8.0859375 L 0.31640625 8.0351562 z M 15.316406 9.0351562 L 15.009766 9.3886719 L 15 9.5 L 15 10.5 L 15.21875 10.914062 L 15.683594 10.964844 L 15.988281 10.611328 L 15.998047 10.5 L 15.998047 9.5 L 15.779297 9.0859375 L 15.316406 9.0351562 z M 7 11 L 7 13 L 13 13 L 13 11 L 7 11 z M 0.31640625 11.035156 L 0.009765625 11.388672 L 0 11.5 L 0 12.5 L 0.21875 12.914062 L 0.68359375 12.964844 L 0.98828125 12.611328 L 0.99804688 12.5 L 0.99804688 11.5 L 0.77929688 11.085938 L 0.31640625 11.035156 z M 15.316406 12.035156 L 15.009766 12.388672 L 15 12.5 L 15 13.5 L 15.21875 13.914062 L 15.683594 13.964844 L 15.988281 13.611328 L 15.998047 13.5 L 15.998047 12.5 L 15.779297 12.085938 L 15.316406 12.035156 z M 0.31835938 14.035156 L 0.009765625 14.388672 L 0 14.5 L 0.5 15.5 L 1 14.5 L 0.78125 14.085938 L 0.31835938 14.035156 z M 2.5058594 15 L 2.0839844 15.21875 L 2.03125 15.683594 L 2.3847656 15.988281 L 2.5058594 16 L 3.5058594 16 L 3.9199219 15.78125 L 3.9707031 15.316406 L 3.6171875 15.011719 L 3.5058594 15 L 2.5058594 15 z M 5.5058594 15 L 5.0839844 15.21875 L 5.03125 15.683594 L 5.3847656 15.988281 L 5.5058594 16 L 6.5058594 16 L 6.9199219 15.78125 L 6.9707031 15.316406 L 6.6171875 15.011719 L 6.5058594 15 L 5.5058594 15 z M 8.5058594 15 L 8.0839844 15.21875 L 8.03125 15.683594 L 8.3847656 15.988281 L 8.5058594 16 L 9.5058594 16 L 9.9199219 15.78125 L 9.9707031 15.316406 L 9.6171875 15.011719 L 9.5058594 15 L 8.5058594 15 z M 11.505859 15 L 11.083984 15.21875 L 11.03125 15.683594 L 11.384766 15.988281 L 11.505859 16 L 12.505859 16 L 12.919922 15.78125 L 12.970703 15.316406 L 12.617188 15.011719 L 12.505859 15 L 11.505859 15 z M 14.505859 15 L 14.083984 15.21875 L 14.03125 15.683594 L 14.384766 15.988281 L 14.505859 16 L 15.505859 15.5 L 14.505859 15 z"
     id="path5" />
</svg>

<svg width="16" height="16" version="1.1" viewBox="0 0 16 16" xmlns="http://www.w3.org/2000/svg">
<defs>
<style id="current-color-scheme" type="text/css">.ColorScheme-Text { color:#5c616c; } .ColorScheme-Highlight { color:#5294e2; }</style>
</defs>
<path class="ColorScheme-Text" d="m0.50195 0-0.41211 0.21875-0.052734 0.46484 0.35352 0.30469 0.10938 0.011719h1l0.41406-0.21875 0.050781-0.46484-0.35352-0.30469-0.10938-0.011719h-1zm3 0-0.41211 0.21875-0.052734 0.46484 0.35352 0.30469 0.10938 0.011719h1l0.41406-0.21875 0.050781-0.46484-0.35352-0.30469-0.10938-0.011719h-1zm3 0-0.41211 0.21875-0.052734 0.46484 0.35352 0.30469 0.10938 0.011719h1l0.41406-0.21875 0.050781-0.46484-0.35352-0.30469-0.10938-0.011719h-1zm3 0-0.41211 0.21875-0.052734 0.46484 0.35352 0.30469 0.10938 0.011719h1l0.41406-0.21875 0.050782-0.46484-0.35352-0.30469-0.10938-0.011719h-1zm3 0-0.41211 0.21875-0.052735 0.46484 0.35352 0.30469 0.10938 0.011719h1l0.41406-0.21875 0.050782-0.46484-0.35352-0.30469-0.10938-0.011719h-1zm2.9961 0.5-0.49805 1 0.21875 0.41406 0.46484 0.050781 0.30469-0.35352 0.009766-0.11133-0.5-1zm-15.182 1.5352-0.30664 0.35352-0.0097656 0.11133v1l0.21875 0.41406 0.46484 0.050781 0.30469-0.35352 0.0097656-0.11133v-1l-0.21875-0.41406-0.46289-0.050781zm2.6836 0.96484v2h6v-2h-6zm12.316 0.035156-0.30664 0.35352-0.009766 0.11133v1l0.21875 0.41406 0.46484 0.050781 0.30469-0.35352 0.009766-0.11133v-1l-0.21875-0.41406-0.46289-0.050781zm-15 2-0.30664 0.35352-0.0097656 0.11133v1l0.21875 0.41406 0.46484 0.050781 0.30469-0.35352 0.0097656-0.11133v-1l-0.21875-0.41406-0.46289-0.050781zm15 1-0.30664 0.35352-0.009766 0.11133v1l0.21875 0.41406 0.46484 0.050781 0.30469-0.35352 0.009766-0.11133v-1l-0.21875-0.41406-0.46289-0.050781zm-10.316 0.96484v2h6v-2h-6zm-4.6836 1.0352-0.30664 0.35352-0.0097656 0.11133v1l0.21875 0.41406 0.46484 0.050781 0.30469-0.35352 0.0097656-0.11133v-1l-0.21875-0.41406-0.46289-0.050781zm15 1-0.30664 0.35352-0.009766 0.11133v1l0.21875 0.41406 0.46484 0.050782 0.30469-0.35352 0.009766-0.11133v-1l-0.21875-0.41406-0.46289-0.050781zm-8.3164 1.9648v2h6v-2h-6zm-6.6836 0.035156-0.30664 0.35352-0.0097656 0.11133v1l0.21875 0.41406 0.46484 0.050782 0.30469-0.35352 0.0097656-0.11133v-1l-0.21875-0.41406-0.46289-0.050782zm15 1-0.30664 0.35352-0.009766 0.11133v1l0.21875 0.41406 0.46484 0.050782 0.30469-0.35352 0.009766-0.11133v-1l-0.21875-0.41406-0.46289-0.050782zm-14.998 2-0.30859 0.35352-0.0097656 0.11133 0.5 1 0.5-1-0.21875-0.41406-0.46289-0.050782zm2.1875 0.96484-0.42188 0.21875-0.052734 0.46484 0.35352 0.30469 0.12109 0.011719h1l0.41406-0.21875 0.050781-0.46484-0.35352-0.30469-0.11133-0.011719h-1zm3 0-0.42188 0.21875-0.052734 0.46484 0.35352 0.30469 0.12109 0.011719h1l0.41406-0.21875 0.050781-0.46484-0.35352-0.30469-0.11133-0.011719h-1zm3 0-0.42188 0.21875-0.052734 0.46484 0.35352 0.30469 0.12109 0.011719h1l0.41406-0.21875 0.050781-0.46484-0.35352-0.30469-0.11133-0.011719h-1zm3 0-0.42188 0.21875-0.052734 0.46484 0.35352 0.30469 0.12109 0.011719h1l0.41406-0.21875 0.050781-0.46484-0.35352-0.30469-0.11133-0.011719h-1zm3 0-0.42188 0.21875-0.052734 0.46484 0.35352 0.30469 0.12109 0.011719 1-0.5-1-0.5z" fill="#f1f6f8" fill-opacity=".85098"/>
</svg>
